Breeze Round Light/actions/32/mail-invitation.svg

<svg xmlns="http://www.w3.org/2000/svg" viewBox="0 0 32 32">
  <defs id="defs3051">
<style type="text/css" id="current-color-scheme">.ColorScheme-Text {color:#fcfcfc;}</style>
  </defs>
 <path 
     style="fill:currentColor;fill-opacity:1;stroke:none" 
     d="m 5,5 v 4 c 0,0 -3,2 -3,4 0,2 0,6 0,10 0,4 4,4 4,4 H 20 V 26 H 6 C 6,26 3,26 3,23 3,20 3,18 3,16 3,14 5,14 5,14 H 5.7871094 L 16,19.570312 26.212891,14 c 0,0 -1.212891,0 0.787109,0 2,0 2,2 2,2 h 1 c 0,0 0,-1 0,-3 0,-2 -3,-4 -3,-4 V 5 Z m 1,1 h 20 v 6.974609 L 16,18.429688 6,12.974609 Z M 8,8 V 9 H 24 V 8 Z m 0,3 v 1 h 9 v -1 z m 17.5,6 C 24.119288,17 23,18.119288 23,19.5 23,20.880712 24.119288,22 25.5,22 26.880712,22 28,20.880712 28,19.5 28,18.119288 26.880712,17 25.5,17 Z m 0,6 c -1.932996,-1e-6 -3.5,1.79086 -3.5,4 h 7 c 0,-2.20914 -1.567004,-4.000001 -3.5,-4 z m 0,1 c 1.05817,0.0018 2.000793,0.802816 2.353516,2 H 23.146484 C 23.499207,24.802815 24.44183,24.001782 25.5,24 Z"
     class="ColorScheme-Text"
     />
</svg>

<svg xmlns="http://www.w3.org/2000/svg" viewBox="0 0 32 32">
  <defs id="defs3051">
    <style type="text/css" id="current-color-scheme">
      .ColorScheme-Text {
        color:#232629;
      }
      </style>
  </defs>
 <path 
     style="fill:currentColor;fill-opacity:1;stroke:none" 
     d="M 5 5 L 5 9 L 2 13 L 2 27 L 20 27 L 20 26 L 3 26 L 3 14 L 5 14 L 5.7871094 14 L 16 19.570312 L 26.212891 14 L 27 14 L 29 14 L 29 16 L 30 16 L 30 13 L 27 9 L 27 5 L 5 5 z M 6 6 L 26 6 L 26 12.974609 L 16 18.429688 L 6 12.974609 L 6 6 z M 8 8 L 8 9 L 24 9 L 24 8 L 8 8 z M 8 11 L 8 12 L 17 12 L 17 11 L 8 11 z M 25.5 17 C 24.119288 17 23 18.119288 23 19.5 C 23 20.880712 24.119288 22 25.5 22 C 26.880712 22 28 20.880712 28 19.5 C 28 18.119288 26.880712 17 25.5 17 z M 25.5 23 C 23.567004 22.999999 22 24.79086 22 27 L 29 27 C 29 24.79086 27.432996 22.999999 25.5 23 z M 25.5 24 C 26.55817 24.0018 27.500793 24.802816 27.853516 26 L 23.146484 26 C 23.499207 24.802815 24.44183 24.001782 25.5 24 z "
     class="ColorScheme-Text"
     />
</svg>
